X:1
T:Lovingly, Tenderly Calling
T:Lovingly, Tenderly Calling
T:William Augustine Ogden
T:William Augustine Ogden, 1885
T:Public Domain Courtesy of the Cyber Hymnal™
T:Public Domain Courtesy of the Cyber Hymnal™
C:William Augustine Ogden
Z:Public Domain
Z:Courtesy of the Cyber Hymnal™
%%score ( 1 2 ) ( 3 4 )
L:1/8
Q:1/4=98
M:6/8
K:F
V:1 treble 
V:2 treble 
V:3 bass 
V:4 bass 
V:1
 F[FG][FA] [FB]2 [Fd] | [Fc]3 [Fc]3 | [EG][FA][GB] [FA]2 [EG] | F3- F2 z | F[FG][FA] [FB]2 [Fd] | %5
w: 1.~Je- sus, the lov- ing|Shep- herd,|Call- eth thee now to|come *|In- to the fold of|
w: 2.~Je- sus, the lov- ing|Shep- herd,|Gave His dear life for|thee; *|Ten- der- ly now He’s|
w: 3.~Lin- ger- ing is but|fol- ly,|Wolves are a- broad to-|day, *|Seek- ing the sheep who’re|
 [Fc]3 [FA]3 | [EG][Ec][Ec] (=BA)[FB] | [Ec]3- [Ec]2 z | [Ec][EG][FA] ([GB][FA])[EG] | %9
w: safe- ty,|Where there is rest * and|room; *|Come in the strength * of|
w: call- ing,|“Wan- der- er, come * to|Me.” *|Haste, for with- out * is|
w: stray- ing,|Seek- ing the lambs * to|slay; *|Je- sus, the lov- * ing|
 [FA]3 [Fc]3 | [FB][Fc][Fd] [Fc]2 [FA] | [EG]3- [EG]2 z | C[CF][CF] (F[EG])[_EA] | [DB]3 [Fd]3 | %14
w: man- hood,|Come in the morn of|youth, *|En- ter the fold * of|safe- ty,|
w: dan- ger,|“Come,” cries the Shep- herd|blest; *|En- ter the fold * of|safe- ty,|
w: Shep- herd,|Call- eth thee now to|come *|In- to the fold * of|safe- ty,|
 [Fc][FA]F (ED)[CE] | [CF]3- [CF]2 z ||"^Refrain" C[FA][FA] [FA][CG][CF] | [CE][Ec][Ec] [Ec]3 | %18
w: En- ter the way * of|truth. *|||
w: En- ter the place * of|rest. *|Lov- ing- ly, ten- der- ly|call- ing is He;|
w: Where there is rest * and|room. *|||
 C[GB][GB] [GB][FA][EG] | F[Fc][Fc] [Fc]3 | C[FA][FA] [FA][EG]F | %21
w: |||
w: “Wan- der- er, wan- der- er,|come un- to Me”;|Pa- tient- ly wait- ing, there|
w: |||
"^riten." E[Fd][Fd] !fermata![Fd]3 | [Fc][FA]F [CE][CD][CE] | [CF]6 |] %24
w: |||
w: stand- ing I see,|Je- sus, my Shep- herd div-|ine.|
w: |||
V:2
 F x5 | x6 | x6 | F3- F2 x | F x5 | x6 | x3 F2 x | x6 | x6 | x6 | x6 | x6 | C x F x3 | x6 | %14
 x2 F C2 x | x6 || C x5 | x6 | C x5 | F x5 | C x3 F x | E x5 | x2 F x3 | x6 |] %24
V:3
 [F,A,][F,B,][F,C] [F,D]2 [F,B,] | [F,A,]3 [F,C]3 | [C,B,][C,A,][C,G,] [C,C]2 [C,B,] | %3
 [F,A,]3- [F,A,]2 z | [F,A,][F,B,][F,C] [F,D]2 [F,B,] | [F,A,]3 [F,C]3 | %6
 [G,C]A,G, [G,,G,]2 [G,,G,] | [C,G,]3- [C,G,]2 z | [C,G,][C,C][C,C] [C,C]2 [C,C] | [F,C]3 [F,A,]3 | %10
 [D,B,][D,A,][B,,B,] [A,,C]2 [F,,C] | [C,C]3- [C,C]2 z | [F,A,][F,A,][F,A,] (A,B,)[F,C] | %13
 [B,,B,]3 [B,,B,]3 | [C,A,][C,C][C,A,] [C,B,]2 [C,B,] | [F,A,]3- [F,A,]2 z || %16
 [F,A,][F,C][F,C] [F,C][F,B,][F,A,] | [C,G,][C,G,][C,G,] [C,G,]3 | %18
 [C,E,][C,G,][C,C] [C,C][C,C][C,B,] | [F,A,][F,A,][F,A,] [F,A,]3 | %20
 [F,A,][F,C][F,C] [F,C][F,B,][F,A,] | [B,,B,][B,,B,][B,,B,] [B,,B,]3 | %22
 [C,A,][C,C][C,A,] [C,B,][C,B,][C,B,] | [F,A,]6 |] %24
V:4
 x6 | x6 | x6 | x6 | x6 | x6 | x A,G, x3 | x6 | x6 | x6 | x6 | x6 | x3 F,2 x | x6 | x6 | x6 || x6 | %17
 x6 | x6 | x6 | x6 | x6 | x6 | x6 |] %24

